X:1
T:Contentez vous
T:Claudin de Sermisy
T:Source : Livre premier contenant 29 chansons nouvelles à 4 parrties---Paris---P.Attaugnant---1536. Editor : André Vierendeels ( 23/04/18)
T:Contentez vous
T:©
T:©
T:©
T:©
C:Claudin de Sermisy
Z:©
%%score [ 1 [ 2 3 ] 4 ]
L:1/8
Q:1/4=120
M:2/2
K:C
V:1 treble nm="Soprano" snm="S"
V:2 treble nm="Alto" snm="A"
V:3 treble-8 nm="Tenor" snm="T"
V:4 bass nm="Bass" snm="B"
V:1
 c8 | B4 A4 | G4 z2 E2 | G2 G2 A2 c2 | B4 A4 | z2 G2 G2 G2 | A2 c2 BAGF | E2 c4 B2- | B2 A4 G2 | %9
w: Con-|ten- tez|vous, a-|my, de la pen-|sé- e,|a- my, de|la pen- sé- * * *|||
 A4 z2 A2 | A2 A2 c4 | B2 c4 BA | G4 z2 c2 | c2 B2 A2 d2- | dcBA B2 A2- | AG G4 F2 | G4 z2 G2 | %17
w: e, ius-|ques à tant|_ _ _ _|* qu'à|la pei- ne'im- por-||* * * tu-|ne, se-|
 A4 c4- | c2 BA B4 | z2 G2 G2 G2 | E2 G2 F4 | E2 G2 G2 G2 | A2 c2 B2 d2- | dc c4 B2 | c4 z4 |: c8 | %26
w: ra don-|* * * né|par l'heu- reu-|se for- tu-|ne, par l'heu- reu-|se for- tu- *||ne,|le|
 B4 A4 | G4 z2 E2 | G2 G2 A2 c2 | B4 A4 | z2 G2 G2 G2 | A2 c2 BAGF | E2 c4 B2- | B2 A4 G2 | A8 |] %35
w: temps et|lieu d'es-|tre re- com- pen-|sé- e,|d'es- tre re-|com- pen- sé- * * *|||e.|
V:2
 G8 | G4 F4 | D2 G,2 C2 C2 | D2 E2 C2 E2- | EF G2 C3 D | E8 | z2 E2 E4- | E2 E2 E2 F2- | F2 D2 E4 | %9
w: Con-|ten- tez|vous, a- my, de|la pen- sé- *||e,|a- my|_ de la pen-|* sé- *|
 C4 z2 F2 | F2 F2 EDEF | G2 E4 DC | B,4 z2 G2 | G2 G2 E2 A2- | A2 G4 E2 | FEDC D4 | B,2 E4 D2 | %17
w: e, ius-|ques à tant _ _ _|_ _ _ _|* qu'à|la pei- ne'im- por-|* tu- *||ne, se- ra|
 F4 G4- | G4 z2 G2 | F2 E2 D2 E2 | C4 D4 | G,4 z2 E2 | F2 E2 G2 A2- | A2 F2 G4 | E4 z4 |: G8 | %26
w: don- né|_ par|l'heu- reu- se for-|tu- *|ne, par|l'heu- reu- se for-|* * tu-|ne,|le|
 G4 F4 | D2 G,2 C2 C2 | D2 E2 C2 E2- | EF G2 C3 D | E8 | z2 E2 E4- | E2 E2 E2 F2- | F2 D2 E4 | %34
w: temps et|lieu d'es- tre re-|com- pen sé- *||e,|d'es- tre|_ re- com- pen-|* * sé-|
 C8 |] %35
w: e.|
V:3
 e8 | e4 c4 | B3 A/G/ G4- | G4 z2 E2 | G2 G2 A2 c2- | c2 BA B4 | A2 G2 G2 G2 | A3 B c2 d2- | %8
w: Con-|ten- tez|vous, _ _ _|_ a-|my, de la pen-|* * * sé-|e, a- my, de|la _ _ pen-|
 dcBA B4 | A8 | z2 A2 A2 A2 | E4 z4 | z2 e2 e2 e2 | d2 d2 c2 f2- | fedc d2 c2- | c2 B2 A4 | %16
w: * * * * sé-|e,|ius- ques à|tant|qu'à la pei-|ne'im- por- tu- *|||
 G4 z2 B2 | c4 e4- | e2 dc d4 | z2 c2 B2 c2 | G2 G2 A3 B | c4 z2 c2 | c4 d2 f2- | fe c2 d4 | %24
w: ne, se-|ra don-|* * * né,|par l'heu- reu-|se for- tu- *|ne, par|l'heu- reu- se|_ _ for- tu-|
 c4 z4 |: e8 | e4 c4 | B3 A/G/ G4- | G4 z2 E2 | G2 G2 A2 c2 | c2 BA B4 | A2 G2 G2 G2 | %32
w: ne,|le|temps et|lieu, _ _ _|_ d'es-|tre re- com- pen-|sé- * * *|e, d'es- tre re-|
 A3 B c2 d2- | dcBA B4 | A8 |] %35
w: com- * * pen-|* * * * sé-|e.|
V:4
 C,8 | E,4 F,4 | G,4 C,4 | z2 C,2 A,,2 A,,2 | E,2 E,2 F,4 | E,2 E,2 E,2 E,2 | F,2 C,2 E,3 D, | %7
w: Con-|ten- tez-|* vous,|a- my, de|la pen- sé-|e,, a- my, de|la pen sé- *|
 C,B,, A,,4 D,2 | F,4 E,4 | A,,4 z2 D,2 | D,2 D,2 A,,4 | z2 A,,2 C,2 D,2 | E,4 z2 C,2 | %13
w: ||e, ius-|ques à tant|que la pei-|ne, qu'à|
 G,2 G,2 A,2 D,2- | D,2 G,4 A,2 | F,2 G,2 D,2 D,2 | E,4 G,4 | F,3 E, C,D,E,F, | G,8 | %19
w: la pei- ne'im- por-|* tu- *|* * ne, se-|ra don-||né,|
 z2 C,2 G,2 C,2 | C,2 E,2 D,4 | C,4 z2 C,2 | F,2 A,2 G,2 F,2 | A,4 G,4 | C,4 z4 |: C,8 | E,4 F,4 | %27
w: par l'heu- reu-|se for- tu-|ne, par|l'heu- reu- se for-|tu- *|ne.|le|temps et|
 G,4 C,4 | z2 C,2 A,,2 A,,2 | E,2 E,2 F,4 | E,2 E,2 E,2 E,2 | F,2 C,2 E,3 D, | C,B,, A,,4 D,2 | %33
w: _ lieu|d'es- tre re-|com- pen- sé-|e, d'e- stre re-|com- pen- sé- *||
 F,4 E,4 | A,,8 |] %35
w: |e.|

